X: 248
T:Donald MacLean
C:P MacLeod
S:Book-The Clunes Collection, Donald Riddell (1986)
Z:https://nigelgatherer.com/
L:1/8
M:6/8
K:Amix
a | eAA cBc | AAA ecA | dGG BAB | GGG dBG |
eAA cBc | AAA ecA | dff Bed | cAA A2 :|
d | cee eAc | eaa cee | cee eAc | Bdd dBG |
cee eAc | eaa cee | dff Bed | cAA A2 :|
K:D
a | fdd edd | dBA BAA | Bee ede | faa efg |
fdd edd | dBA BAA | Bee caa | fdd d2 :|
f/e/ | dff Aff | dff fed | cee Aee | cee gfe |
dff Aff | dff fed | cee Aaa | fdd d2 :|
e | faa fed | Bdd dBA | faa fed | Bee e2 A |
faa fed | Bdd dBA | Bee caa | fdd d2 :|
K:Amix
f | eaa gaa | faa ecA | cee ecA | Bdd dBG |
eaa gaa | faa ecA | dff Bed | cAA A2 :|

